icons/solid/reply-all.svg

<svg width="24" height="24" viewBox="0 0 24 24" fill="none" xmlns="http://www.w3.org/2000/svg">
<path fill-rule="evenodd" clip-rule="evenodd" d="M13.3827 4.07612C13.7564 4.2309 14 4.59554 14 5V8.02792C15.8553 8.13427 17.3653 8.54093 18.5861 9.18623C20.028 9.94845 21.0128 11.0157 21.6734 12.2005C22.9658 14.5183 23 17.2695 23 19C23 19.5523 22.5523 20 22 20C21.4477 20 21 19.5523 21 19C21 18.3785 20.7817 17.919 20.4026 17.5402C19.9989 17.137 19.3817 16.7985 18.5714 16.5403C17.2271 16.112 15.5505 15.9664 14 15.9746V19C14 19.4045 13.7564 19.7691 13.3827 19.9239C13.009 20.0787 12.5789 19.9931 12.2929 19.7071L5.29289 12.7071C4.90237 12.3166 4.90237 11.6834 5.29289 11.2929L12.2929 4.29289C12.5789 4.00689 13.009 3.92134 13.3827 4.07612ZM10 5.00003V5.58582L4.29289 11.2929C4.09764 11.4882 4.00001 11.7441 4 12C3.99999 12.2559 4.09762 12.5119 4.29289 12.7071L10 18.4142V19C10 19.4045 9.75636 19.7691 9.38268 19.9239C9.00901 20.0787 8.57889 19.9931 8.29289 19.7071L1.29289 12.7071C0.902369 12.3166 0.902369 11.6834 1.29289 11.2929L8.29289 4.29292C8.57889 4.00692 9.00901 3.92137 9.38268 4.07615C9.75636 4.23093 10 4.59557 10 5.00003ZM19 20L18.9924 20H19.0076L19 20Z" fill="currentColor"/>
</svg>

<svg width="24" height="24" fill="none" xmlns="http://www.w3.org/2000/svg"><path fill-rule="evenodd" clip-rule="evenodd" d="M13.383 4.076A1 1 0 0114 5v3.028c1.855.106 3.365.513 4.586 1.158a7.46 7.46 0 013.087 3.014C22.966 14.518 23 17.27 23 19a1 1 0 11-2 0c0-.622-.218-1.081-.597-1.46-.404-.403-1.021-.741-1.832-1-1.344-.428-3.02-.574-4.571-.565V19a1 1 0 01-1.707.707l-7-7a1 1 0 010-1.414l7-7a1 1 0 011.09-.217zM10 5v.586l-5.707 5.707a.997.997 0 000 1.414L10 18.414V19a1 1 0 01-1.707.707l-7-7a1 1 0 010-1.414l7-7A1 1 0 0110 5zm9 15h-.008.016H19z" fill="currentColor"/></svg>
